chat/images/apps/phone.svg

<?xml version="1.0" encoding="UTF-8" standalone="no"?>
<svg width="26px" height="26px" viewBox="0 0 26 26" version="1.1" xmlns="http://www.w3.org/2000/svg" xmlns:xlink="http://www.w3.org/1999/xlink" xmlns:sketch="http://www.bohemiancoding.com/sketch/ns">
    <!-- Generator: Sketch 3.4.4 (17249) - http://www.bohemiancoding.com/sketch -->
    <title>Phone</title>
    <desc>Created with Sketch.</desc>
    <defs></defs>
    <g id="Page-1" stroke="none" stroke-width="1" fill="none" fill-rule="evenodd" sketch:type="MSPage">
        <g id="Phone" sketch:type="MSArtboardGroup">
            <g sketch:type="MSLayerGroup" transform="translate(1.000000, 1.000000)">
                <ellipse id="Background" fill="#0AD02C" sketch:type="MSShapeGroup" cx="12" cy="12" rx="12" ry="12"></ellipse>
                <path d="M15.5768032,14.0869445 C16.1380883,14.2628674 18.8029506,15.9512538 18.9800757,16.5884724 C19.1572007,17.2256909 18.1124143,18.5754156 17.4692393,18.9050739 C16.8260643,19.2347321 14.7606947,18.6698383 13.1117189,17.7658483 C11.6638026,16.9720817 10.9350046,16.4171376 9.22880709,14.7109401 C7.52260957,13.0047426 7.02871611,12.3376526 6.23415171,10.8882811 C5.33016168,9.23930528 4.76526791,7.17393571 5.09492614,6.53076069 C5.42458436,5.88758568 6.7743091,4.84279928 7.41152765,5.01992432 C8.0487462,5.19704937 9.73713263,7.8619117 9.91305547,8.42319685 C10.0889783,8.98448199 8.71106311,10.149349 8.84697446,10.7314819 C8.96493635,11.236734 10.4562598,12.7110331 10.8481128,13.0916343 C10.8481128,13.0916343 12.7639383,15.0352206 13.2685181,15.1530255 C13.850651,15.2889369 15.015518,13.9110217 15.5768032,14.0869445 Z" id="Rectangle-154" fill="#FFFFFF" sketch:type="MSShapeGroup"></path>
            </g>
        </g>
    </g>
</svg>

<svg xmlns="http://www.w3.org/2000/svg" viewBox="0 0 26 26">
  <g fill="none" fill-rule="evenodd" transform="translate(1 1)">
    <ellipse cx="12" cy="12" fill="#0AD02C" rx="12" ry="12"/>
    <path fill="#FFF" d="M15.577 14.087c.56.176 3.226 1.864 3.403 2.5.177.64-.868 1.988-1.51 2.318-.644.33-2.71-.235-4.358-1.14-1.448-.793-2.177-1.348-3.883-3.054-1.707-1.705-2.2-2.372-2.996-3.822-.904-1.65-1.47-3.714-1.14-4.357.33-.642 1.68-1.687 2.318-1.51.637.177 2.325 2.842 2.5 3.403.177.56-1.2 1.726-1.065 2.308.118.507 1.61 1.98 2 2.362 0 0 1.917 1.943 2.422 2.06.58.137 1.746-1.24 2.307-1.065z"/>
  </g>
</svg>
